src/assets/img/audio.svg

<svg xmlns="http://www.w3.org/2000/svg" width="48" height="48"><path d="M30 47.214v-6.315C36.975 38.421 42 31.83 42 24c0-7.824-5.025-14.418-12-16.896V.786C40.344 3.456 48 12.822 48 24c0 11.181-7.656 20.547-18 23.214zM9 36c-4.971 0-9-4.032-9-9v-6a9 9 0 0 1 9-9h3L27 0v48L12 36H9zm12 0V12l-6 6H9a3 3 0 0 0-3 3v6c0 1.659 1.341 3 3 3h6l6 6zm18-12c0 5.583-3.831 10.236-9 11.574v-6.405c1.788-1.041 3-2.955 3-5.169s-1.212-4.128-3-5.169v-6.405c5.169 1.335 9 5.988 9 11.574z" fill="#666"/></svg>

<?xml version="1.0" encoding="UTF-8" standalone="no"?>
<!-- Generator: IcoMoon.io -->

<svg
   xmlns:dc="http://purl.org/dc/elements/1.1/"
   xmlns:cc="http://creativecommons.org/ns#"
   xmlns:rdf="http://www.w3.org/1999/02/22-rdf-syntax-ns#"
   xmlns:svg="http://www.w3.org/2000/svg"
   xmlns="http://www.w3.org/2000/svg"
   xmlns:sodipodi="http://sodipodi.sourceforge.net/DTD/sodipodi-0.dtd"
   xmlns:inkscape="http://www.inkscape.org/namespaces/inkscape"
   version="1.1"
   id="Layer_1"
   x="0px"
   y="0px"
   width="48px"
   height="48px"
   viewBox="0 0 48 48"
   enable-background="new 0 0 16 16"
   xml:space="preserve"
   fill="#000000"
   sodipodi:docname="audio.svg"
   inkscape:version="0.92.2 2405546, 2018-03-11"><metadata
   id="metadata9"><rdf:RDF><cc:Work
       rdf:about=""><dc:format>image/svg+xml</dc:format><dc:type
         rdf:resource="http://purl.org/dc/dcmitype/StillImage" /></cc:Work></rdf:RDF></metadata><defs
   id="defs7" /><sodipodi:namedview
   pagecolor="#ffffff"
   bordercolor="#666666"
   borderopacity="1"
   objecttolerance="10"
   gridtolerance="10"
   guidetolerance="10"
   inkscape:pageopacity="0"
   inkscape:pageshadow="2"
   inkscape:window-width="1852"
   inkscape:window-height="1051"
   id="namedview5"
   showgrid="false"
   inkscape:zoom="4.9166667"
   inkscape:cx="22.474576"
   inkscape:cy="24"
   inkscape:window-x="68"
   inkscape:window-y="0"
   inkscape:window-maximized="1"
   inkscape:current-layer="Layer_1" /> <path
   d="M 30.00,47.214l0.00,-6.315 c 6.975-2.478, 12.00-9.069, 12.00-16.899 c0.00-7.824-5.025-14.418-12.00-16.896L30.00,0.786 c 10.344,2.67, 18.00,12.036, 18.00,23.214C 48.00,35.181, 40.344,44.547, 30.00,47.214z M 9.00,36.00c-4.971,0.00-9.00-4.032-9.00-9.00L0.00,21.00 c0.00-4.971, 4.029-9.00, 9.00-9.00l3.00,0.00 l 15.00-12.00l0.00,48.00 l-15.00-12.00L9.00,36.00 z M 21.00,36.00L21.00,27.00 L21.00,21.00 L21.00,12.00 L 15.00,18.00L9.00,18.00 C 7.341,18.00, 6.00,19.344, 6.00,21.00l0.00,6.00 c0.00,1.659, 1.341,3.00, 3.00,3.00l6.00,0.00 L 21.00,36.00z M 39.00,24.00 c0.00,5.583-3.831,10.236-9.00,11.574L30.00,29.169 C 31.788,28.128, 33.00,26.214, 33.00,24.00s-1.212-4.128-3.00-5.169L30.00,12.426 C 35.169,13.761, 39.00,18.414, 39.00,24.00z"
   id="path2"
   style="fill:#666666;fill-opacity:1" /></svg>
